.local/share/icons/Gruvbox-Plus-Dark/panel/22/megasynching.svg

<svg xmlns="http://www.w3.org/2000/svg" width="22" height="22" version="1.1">
 <defs>
  <style id="current-color-scheme" type="text/css">
   .ColorScheme-Text { color:#ebdbb2; } .ColorScheme-Highlight { color:#458588; }
  </style>
 </defs>
 <g style="fill:currentColor" class="ColorScheme-Text">
  <path style="fill:currentColor" class="ColorScheme-Text" d="M 11 3 C 6.5822865 3 3 6.578744 3 11 C 3 15.417713 6.5787438 19 11 19 C 11.326401 19 11.646718 18.975469 11.962891 18.9375 A 5 5 0 0 1 11 16 A 5 5 0 0 1 13 12.007812 L 13 11.5 L 12 13 L 10 13 L 9 11.5 L 9 14 L 7 14 L 7 8 L 9 8 L 11 11 L 13 8 L 15 8 L 15 11.105469 A 5 5 0 0 1 16 11 A 5 5 0 0 1 18.9375 11.960938 C 18.975324 11.645309 19 11.325879 19 11 C 19 6.5822866 15.421256 3 11 3 z"/>
 </g>
 <path class="ColorScheme-Text" d="m 19.464742,13.999335 c -1.1045,-1.9131 -3.551,-2.5687 -5.4641,-1.4641 -1.9132,1.1046 -2.5686,3.5509 -1.4641,5.4641 1.1045,1.9131 3.551,2.5687 5.4641,1.4641 1.9132,-1.1046 2.5686,-3.5509 1.4641,-5.4641 z m -0.86601,0.5 a 3,3 0 0 1 -1.0981,4.0981 l -0.49998,-0.8661 a 2,2 0 0 0 0.73208,-2.7321 l 0.86598,-0.4999 z m -4.0981,-1.0981 0.49998,0.8661 a 2,2 0 0 0 -0.73208,2.7321 l -0.86598,0.4999 a 3,3 0 0 1 1.0981,-4.0981 z" style="fill:currentColor"/>
</svg>

<svg width="22" height="22" version="1.1" xmlns="http://www.w3.org/2000/svg">
  <defs>
    <style id="current-color-scheme" type="text/css">.ColorScheme-Text { color:#ebdbb2; } .ColorScheme-Highlight { color:#458588; } .ColorScheme-NeutralText { color:#fe8019; } .ColorScheme-PositiveText { color:#689d6a; } .ColorScheme-NegativeText { color:#fb4934; }</style>
  </defs>
  <path class="ColorScheme-Text" d="m19.46 14c-1.104-1.913-3.551-2.569-5.464-1.464s-2.569 3.551-1.464 5.464c1.104 1.913 3.551 2.569 5.464 1.464s2.569-3.551 1.464-5.464zm-0.866 0.5a3 3 0 0 1-1.098 4.098l-0.5-0.8661a2 2 0 0 0 0.7321-2.732l0.866-0.4999zm-4.098-1.098 0.5 0.8661a2 2 0 0 0-0.7321 2.732l-0.866 0.4999a3 3 0 0 1 1.098-4.098z" fill="currentColor"/>
  <path class="ColorScheme-Text" d="m11 3c-4.418 0-8 3.579-8 8 0 4.418 3.579 8 8 8 0.3264 0 0.6467-0.02453 0.9629-0.0625a5 5 0 0 1-0.9629-2.938 5 5 0 0 1 2-3.992v-0.5078l-1 1.5h-2l-1-1.5v2.5h-2v-6h2l2 3 2-3h2v3.105a5 5 0 0 1 1-0.1055 5 5 0 0 1 2.938 0.9609c0.03782-0.3156 0.0625-0.6351 0.0625-0.9609 0-4.418-3.579-8-8-8z" fill="currentColor"/>
</svg>
